assets/icons/action/sort.svg

<?xml version="1.0"?><svg xmlns="http://www.w3.org/2000/svg" width="52" height="52" viewBox="0 0 52 52"><g fill="#fff"><path d="m27.5 16c0.6-0.6 0.6-1.5 0-2.1l-11.4-11.5c-0.6-0.6-1.5-0.6-2.1 0l-11.5 11.5c-0.6 0.6-0.6 1.5 0 2.1l2.1 2.1c0.6 0.6 1.5 0.6 2.1 0l3.6-3.6c0.6-0.6 1.7-0.2 1.7 0.7v21.2c0 0.8 0.7 1.5 1.5 1.5h3c0.8 0 1.5-0.8 1.5-1.5v-21.2c0-0.9 1.1-1.3 1.7-0.7l3.6 3.6c0.6 0.6 1.5 0.6 2.1 0l2.1-2.1z m22 20l-2.1-2c-0.6-0.6-1.5-0.6-2.1 0l-3.6 3.6c-0.6 0.6-1.7 0.2-1.7-0.7v-21.4c0-0.8-0.7-1.5-1.5-1.5h-3c-0.8 0-1.5 0.8-1.5 1.5v21.2c0 0.9-1.1 1.3-1.7 0.7l-3.6-3.6c-0.6-0.6-1.5-0.6-2.1 0l-2.1 2.2c-0.6 0.6-0.6 1.5 0 2.1l11.5 11.5c0.6 0.6 1.5 0.6 2.1 0l11.5-11.5c0.5-0.6 0.5-1.6-0.1-2.1z"></path></g></svg>

<svg xmlns="http://www.w3.org/2000/svg" x="0px" y="0px"
	 width="52px" height="52px" viewBox="0 0 52 52" enable-background="new 0 0 52 52" xml:space="preserve">
<g>
	<path fill="#FFFFFF" d="M27.5,16c0.6-0.6,0.6-1.5,0-2.1L16.1,2.4c-0.6-0.6-1.5-0.6-2.1,0L2.5,13.9c-0.6,0.6-0.6,1.5,0,2.1l2.1,2.1
		c0.6,0.6,1.5,0.6,2.1,0l3.6-3.6c0.6-0.6,1.7-0.2,1.7,0.7v21.2c0,0.8,0.7,1.5,1.5,1.5h3c0.8,0,1.5-0.8,1.5-1.5V15.2
		c0-0.9,1.1-1.3,1.7-0.7l3.6,3.6c0.6,0.6,1.5,0.6,2.1,0L27.5,16z"/>
	<path fill="#FFFFFF" d="M49.5,36L47.4,34c-0.6-0.6-1.5-0.6-2.1,0l-3.6,3.6c-0.6,0.6-1.7,0.2-1.7-0.7V15.5c0-0.8-0.7-1.5-1.5-1.5h-3
		c-0.8,0-1.5,0.8-1.5,1.5v21.2c0,0.9-1.1,1.3-1.7,0.7l-3.6-3.6c-0.6-0.6-1.5-0.6-2.1,0L24.5,36c-0.6,0.6-0.6,1.5,0,2.1L36,49.6
		c0.6,0.6,1.5,0.6,2.1,0l11.5-11.5C50.1,37.5,50.1,36.5,49.5,36z"/>
</g>
</svg>
